!!!OTL: Heimkehr des Ehemannes Dos Schreibn ischt khamen af Letze Herr,
!!!ARE: Europa, Suedosteuropa, Jugoslavija, Gottschee, Lichtenbach
!!!YOR: 1, S. 95
!!    1895 gedruckt in Graz
!!!SCT: Q0011
!!!YEM: Copyright 1995, estate of Helmut Schaffrath.
**kern
*ICvox
*Ivox
*M2/4
*k[f#]
*G:
{4d
=1
4g
8g
8a
=2
8b
8a
8g
8d
=3
4g
8g
8a
=4
4b}
{8d
8d
=5
4g
8g
8a
=6
4b
8dd
8cc
=7
4b
8a
8f#
=8
4g}
{8d
8d
=9
4g
8g
8a
=10
4b
8dd
8cc
=11
4b
8a
8f#
=12
4g}
==
!!!AGN: Ballade, Ehe, Heimkehr
!!!ONB: ESAC (Essen Associative Code) Database: BALLADE
!!!AMT: simple duple
!!!AIN: vox
!!!EED: Helmut Schaffrath
!!!EEV: 1.0
*-
